X: 1
T: A Jig For Jay
M: 6/8
L: 1/8
R: jig
K: Dmaj
|: e | f2 f afe | edB AB/c/d | f2 f fed | e3 Ace |
f^ef af=e | edB A2 d | f^ef =edc | dAF D2 :|
|: G | F2 F AFD | G2 G BAG | FA/B/c dcd |
[1 cAa gec |F2 A- AFD | G3 BAG | FAd dcd | cAa d2 :|
[2 cAa gea | f2 a eca | dBa cAa | B2 a AFa | gec d2 ||
